images/Chk1N45.svg

<?xml version="1.0" encoding="UTF-8"?>
<svg xmlns="http://www.w3.org/2000/svg" xmlns:xlink="http://www.w3.org/1999/xlink" width="300pt" height="300pt" viewBox="0 0 300 300" version="1.1">
<defs>
<g>
<symbol overflow="visible" id="glyph0-0">
<path style="stroke:none;" d="M 0.453125 1.59375 L 0.453125 -6.34375 L 4.953125 -6.34375 L 4.953125 1.59375 Z M 0.953125 1.09375 L 4.453125 1.09375 L 4.453125 -5.84375 L 0.953125 -5.84375 Z M 0.953125 1.09375 "/>
</symbol>
<symbol overflow="visible" id="glyph0-1">
<path style="stroke:none;" d="M 3.546875 -5.953125 C 2.898438 -5.953125 2.382812 -5.710938 2 -5.234375 C 1.625 -4.753906 1.4375 -4.101562 1.4375 -3.28125 C 1.4375 -2.445312 1.625 -1.789062 2 -1.3125 C 2.382812 -0.832031 2.898438 -0.59375 3.546875 -0.59375 C 4.191406 -0.59375 4.703125 -0.832031 5.078125 -1.3125 C 5.453125 -1.789062 5.640625 -2.445312 5.640625 -3.28125 C 5.640625 -4.101562 5.453125 -4.753906 5.078125 -5.234375 C 4.703125 -5.710938 4.191406 -5.953125 3.546875 -5.953125 Z M 3.546875 -6.6875 C 4.460938 -6.6875 5.195312 -6.375 5.75 -5.75 C 6.300781 -5.132812 6.578125 -4.3125 6.578125 -3.28125 C 6.578125 -2.238281 6.300781 -1.410156 5.75 -0.796875 C 5.195312 -0.179688 4.460938 0.125 3.546875 0.125 C 2.617188 0.125 1.878906 -0.179688 1.328125 -0.796875 C 0.773438 -1.410156 0.5 -2.238281 0.5 -3.28125 C 0.5 -4.3125 0.773438 -5.132812 1.328125 -5.75 C 1.878906 -6.375 2.617188 -6.6875 3.546875 -6.6875 Z M 3.546875 -6.6875 "/>
</symbol>
<symbol overflow="visible" id="glyph0-2">
<path style="stroke:none;" d="M 0.890625 -6.5625 L 1.765625 -6.5625 L 1.765625 -3.875 L 5 -3.875 L 5 -6.5625 L 5.890625 -6.5625 L 5.890625 0 L 5 0 L 5 -3.125 L 1.765625 -3.125 L 1.765625 0 L 0.890625 0 Z M 0.890625 -6.5625 "/>
</symbol>
<symbol overflow="visible" id="glyph0-3">
<path style="stroke:none;" d="M 0.890625 -6.5625 L 2.078125 -6.5625 L 4.984375 -1.078125 L 4.984375 -6.5625 L 5.84375 -6.5625 L 5.84375 0 L 4.65625 0 L 1.75 -5.484375 L 1.75 0 L 0.890625 0 Z M 0.890625 -6.5625 "/>
</symbol>
</g>
</defs>
<g id="surface389">
<rect x="0" y="0" width="300" height="300" style="fill:rgb(100%,100%,100%);fill-opacity:1;stroke:none;"/>
<path style="fill:none;stroke-width:1.2;stroke-linecap:butt;stroke-linejoin:miter;stroke:rgb(0%,0%,0%);stroke-opacity:1;stroke-miterlimit:10;" d="M 74.828125 102.613281 L 68.230469 109.402344 "/>
<path style="fill:none;stroke-width:1.2;stroke-linecap:butt;stroke-linejoin:miter;stroke:rgb(100%,0%,0%);stroke-opacity:1;stroke-miterlimit:10;" d="M 68.230469 109.402344 L 61.632812 116.191406 "/>
<path style="fill:none;stroke-width:1.2;stroke-linecap:butt;stroke-linejoin:miter;stroke:rgb(100%,0%,0%);stroke-opacity:1;stroke-miterlimit:10;" d="M 61.632812 116.191406 L 64.214844 125.296875 "/>
<path style="fill:none;stroke-width:1.2;stroke-linecap:butt;stroke-linejoin:miter;stroke:rgb(0%,0%,0%);stroke-opacity:1;stroke-miterlimit:10;" d="M 64.214844 125.296875 L 66.796875 134.40625 "/>
<path style=" stroke:none;fill-rule:nonzero;fill:rgb(100%,100%,100%);fill-opacity:1;" d="M 57.632812 110.691406 L 65.632812 110.691406 L 65.632812 121.691406 L 57.632812 121.691406 Z M 57.632812 110.691406 "/>
<g style="fill:rgb(100%,0%,0%);fill-opacity:1;">
  <use xlink:href="#glyph0-1" x="57.632812" y="119.354492"/>
</g>
<path style="fill:none;stroke-width:1.2;stroke-linecap:butt;stroke-linejoin:miter;stroke:rgb(0%,0%,0%);stroke-opacity:1;stroke-miterlimit:10;" d="M 66.796875 134.40625 L 85.152344 139.039062 "/>
<path style="fill:none;stroke-width:1.2;stroke-linecap:butt;stroke-linejoin:miter;stroke:rgb(0%,0%,0%);stroke-opacity:1;stroke-miterlimit:10;" d="M 67.542969 139.1875 L 82.226562 142.894531 "/>
<path style="fill:none;stroke-width:1.2;stroke-linecap:butt;stroke-linejoin:miter;stroke:rgb(0%,0%,0%);stroke-opacity:1;stroke-miterlimit:10;" d="M 53.605469 147.980469 L 66.796875 134.40625 "/>
<path style="fill:none;stroke-width:1.2;stroke-linecap:butt;stroke-linejoin:miter;stroke:rgb(0%,0%,0%);stroke-opacity:1;stroke-miterlimit:10;" d="M 85.152344 139.039062 L 90.316406 157.253906 "/>
<path style="fill:none;stroke-width:1.2;stroke-linecap:butt;stroke-linejoin:miter;stroke:rgb(0%,0%,0%);stroke-opacity:1;stroke-miterlimit:10;" d="M 90.316406 157.253906 L 77.121094 170.832031 "/>
<path style="fill:none;stroke-width:1.2;stroke-linecap:butt;stroke-linejoin:miter;stroke:rgb(0%,0%,0%);stroke-opacity:1;stroke-miterlimit:10;" d="M 85.800781 155.507812 L 75.246094 166.371094 "/>
<path style="fill:none;stroke-width:1.2;stroke-linecap:butt;stroke-linejoin:miter;stroke:rgb(0%,0%,0%);stroke-opacity:1;stroke-miterlimit:10;" d="M 90.316406 157.253906 L 108.671875 161.890625 "/>
<path style="fill:none;stroke-width:1.2;stroke-linecap:butt;stroke-linejoin:miter;stroke:rgb(0%,0%,0%);stroke-opacity:1;stroke-miterlimit:10;" d="M 77.121094 170.832031 L 58.769531 166.195312 "/>
<path style="fill:none;stroke-width:1.2;stroke-linecap:butt;stroke-linejoin:miter;stroke:rgb(0%,0%,0%);stroke-opacity:1;stroke-miterlimit:10;" d="M 58.769531 166.195312 L 53.605469 147.980469 "/>
<path style="fill:none;stroke-width:1.2;stroke-linecap:butt;stroke-linejoin:miter;stroke:rgb(0%,0%,0%);stroke-opacity:1;stroke-miterlimit:10;" d="M 62.539062 163.160156 L 58.40625 148.589844 "/>
<path style="fill:none;stroke-width:1.2;stroke-linecap:butt;stroke-linejoin:miter;stroke:rgb(0%,0%,0%);stroke-opacity:1;stroke-miterlimit:10;" d="M 53.605469 147.980469 L 44.425781 145.664062 "/>
<path style="fill:none;stroke-width:1.2;stroke-linecap:butt;stroke-linejoin:miter;stroke:rgb(100%,0%,0%);stroke-opacity:1;stroke-miterlimit:10;" d="M 44.425781 145.664062 L 35.25 143.347656 "/>
<path style=" stroke:none;fill-rule:nonzero;fill:rgb(100%,100%,100%);fill-opacity:1;" d="M 20.25 137.847656 L 35.25 137.847656 L 35.25 148.847656 L 20.25 148.847656 Z M 20.25 137.847656 "/>
<g style="fill:rgb(100%,0%,0%);fill-opacity:1;">
  <use xlink:href="#glyph0-2" x="20.25" y="146.510742"/>
  <use xlink:href="#glyph0-1" x="27.264648" y="146.510742"/>
</g>
<path style="fill:none;stroke-width:1.2;stroke-linecap:butt;stroke-linejoin:miter;stroke:rgb(0%,0%,0%);stroke-opacity:1;stroke-miterlimit:10;" d="M 108.671875 161.890625 L 113.832031 180.105469 "/>
<path style="fill:none;stroke-width:1.2;stroke-linecap:butt;stroke-linejoin:miter;stroke:rgb(0%,0%,0%);stroke-opacity:1;stroke-miterlimit:10;" d="M 113.472656 162.496094 L 117.601562 177.066406 "/>
<path style="fill:none;stroke-width:1.2;stroke-linecap:butt;stroke-linejoin:miter;stroke:rgb(0%,0%,0%);stroke-opacity:1;stroke-miterlimit:10;" d="M 121.863281 148.3125 L 108.671875 161.890625 "/>
<path style="fill:none;stroke-width:1.2;stroke-linecap:butt;stroke-linejoin:miter;stroke:rgb(0%,0%,0%);stroke-opacity:1;stroke-miterlimit:10;" d="M 113.832031 180.105469 L 132.1875 184.738281 "/>
<path style="fill:none;stroke-width:1.2;stroke-linecap:butt;stroke-linejoin:miter;stroke:rgb(0%,0%,0%);stroke-opacity:1;stroke-miterlimit:10;" d="M 132.1875 184.738281 L 145.378906 171.160156 "/>
<path style="fill:none;stroke-width:1.2;stroke-linecap:butt;stroke-linejoin:miter;stroke:rgb(0%,0%,0%);stroke-opacity:1;stroke-miterlimit:10;" d="M 130.3125 180.277344 L 140.867188 169.414062 "/>
<path style="fill:none;stroke-width:1.2;stroke-linecap:butt;stroke-linejoin:miter;stroke:rgb(0%,0%,0%);stroke-opacity:1;stroke-miterlimit:10;" d="M 145.378906 171.160156 L 162.839844 178.480469 "/>
<path style="fill:none;stroke-width:1.2;stroke-linecap:butt;stroke-linejoin:miter;stroke:rgb(0%,0%,0%);stroke-opacity:1;stroke-miterlimit:10;" d="M 140.21875 152.949219 L 145.378906 171.160156 "/>
<path style="fill:none;stroke-width:1.2;stroke-linecap:butt;stroke-linejoin:miter;stroke:rgb(0%,0%,0%);stroke-opacity:1;stroke-miterlimit:10;" d="M 160.617188 178.597656 L 161.105469 188.050781 "/>
<path style="fill:none;stroke-width:1.2;stroke-linecap:butt;stroke-linejoin:miter;stroke:rgb(100%,0%,0%);stroke-opacity:1;stroke-miterlimit:10;" d="M 161.105469 188.050781 L 161.597656 197.503906 "/>
<path style="fill:none;stroke-width:1.2;stroke-linecap:butt;stroke-linejoin:miter;stroke:rgb(0%,0%,0%);stroke-opacity:1;stroke-miterlimit:10;" d="M 165.0625 178.367188 L 165.554688 187.820312 "/>
<path style="fill:none;stroke-width:1.2;stroke-linecap:butt;stroke-linejoin:miter;stroke:rgb(100%,0%,0%);stroke-opacity:1;stroke-miterlimit:10;" d="M 165.554688 187.820312 L 166.042969 197.273438 "/>
<path style="fill:none;stroke-width:1.2;stroke-linecap:butt;stroke-linejoin:miter;stroke:rgb(0%,0%,0%);stroke-opacity:1;stroke-miterlimit:10;" d="M 162.839844 178.480469 L 171.144531 173.9375 "/>
<path style="fill:none;stroke-width:1.2;stroke-linecap:butt;stroke-linejoin:miter;stroke:rgb(0%,0%,100%);stroke-opacity:1;stroke-miterlimit:10;" d="M 171.144531 173.9375 L 179.449219 169.394531 "/>
<path style=" stroke:none;fill-rule:nonzero;fill:rgb(100%,100%,100%);fill-opacity:1;" d="M 159.820312 191.886719 L 167.820312 191.886719 L 167.820312 202.886719 L 159.820312 202.886719 Z M 159.820312 191.886719 "/>
<g style="fill:rgb(100%,0%,0%);fill-opacity:1;">
  <use xlink:href="#glyph0-1" x="159.820312" y="200.549805"/>
</g>
<path style="fill:none;stroke-width:1.2;stroke-linecap:butt;stroke-linejoin:miter;stroke:rgb(0%,0%,100%);stroke-opacity:1;stroke-miterlimit:10;" d="M 179.449219 169.394531 L 181.074219 160.070312 "/>
<path style="fill:none;stroke-width:1.2;stroke-linecap:butt;stroke-linejoin:miter;stroke:rgb(0%,0%,0%);stroke-opacity:1;stroke-miterlimit:10;" d="M 181.074219 160.070312 L 182.699219 150.746094 "/>
<path style=" stroke:none;fill-rule:nonzero;fill:rgb(100%,100%,100%);fill-opacity:1;" d="M 172.449219 163.894531 L 186.449219 163.894531 L 186.449219 174.894531 L 172.449219 174.894531 Z M 172.449219 163.894531 "/>
<g style="fill:rgb(0%,0%,100%);fill-opacity:1;">
  <use xlink:href="#glyph0-3" x="172.449219" y="172.557617"/>
  <use xlink:href="#glyph0-2" x="179.426758" y="172.557617"/>
</g>
<path style="fill:none;stroke-width:1.2;stroke-linecap:butt;stroke-linejoin:miter;stroke:rgb(0%,0%,0%);stroke-opacity:1;stroke-miterlimit:10;" d="M 182.699219 150.746094 L 201.25 146.957031 "/>
<path style="fill:none;stroke-width:1.2;stroke-linecap:butt;stroke-linejoin:miter;stroke:rgb(0%,0%,0%);stroke-opacity:1;stroke-miterlimit:10;" d="M 183.664062 146 L 198.503906 142.972656 "/>
<path style="fill:none;stroke-width:1.2;stroke-linecap:butt;stroke-linejoin:miter;stroke:rgb(0%,0%,0%);stroke-opacity:1;stroke-miterlimit:10;" d="M 170.144531 136.574219 L 182.699219 150.746094 "/>
<path style="fill:none;stroke-width:1.2;stroke-linecap:butt;stroke-linejoin:miter;stroke:rgb(0%,0%,0%);stroke-opacity:1;stroke-miterlimit:10;" d="M 201.25 146.957031 L 207.242188 129 "/>
<path style="fill:none;stroke-width:1.2;stroke-linecap:butt;stroke-linejoin:miter;stroke:rgb(0%,0%,0%);stroke-opacity:1;stroke-miterlimit:10;" d="M 207.242188 129 L 194.6875 114.832031 "/>
<path style="fill:none;stroke-width:1.2;stroke-linecap:butt;stroke-linejoin:miter;stroke:rgb(0%,0%,0%);stroke-opacity:1;stroke-miterlimit:10;" d="M 202.652344 130.539062 L 192.609375 119.203125 "/>
<path style="fill:none;stroke-width:1.2;stroke-linecap:butt;stroke-linejoin:miter;stroke:rgb(0%,0%,0%);stroke-opacity:1;stroke-miterlimit:10;" d="M 207.242188 129 L 225.792969 125.214844 "/>
<path style="fill:none;stroke-width:1.2;stroke-linecap:butt;stroke-linejoin:miter;stroke:rgb(0%,0%,0%);stroke-opacity:1;stroke-miterlimit:10;" d="M 194.6875 114.832031 L 176.140625 118.617188 "/>
<path style="fill:none;stroke-width:1.2;stroke-linecap:butt;stroke-linejoin:miter;stroke:rgb(0%,0%,0%);stroke-opacity:1;stroke-miterlimit:10;" d="M 176.140625 118.617188 L 170.144531 136.574219 "/>
<path style="fill:none;stroke-width:1.2;stroke-linecap:butt;stroke-linejoin:miter;stroke:rgb(0%,0%,0%);stroke-opacity:1;stroke-miterlimit:10;" d="M 179.765625 121.824219 L 174.96875 136.191406 "/>
<path style="fill:none;stroke-width:1.2;stroke-linecap:butt;stroke-linejoin:miter;stroke:rgb(0%,0%,0%);stroke-opacity:1;stroke-miterlimit:10;" d="M 170.144531 136.574219 L 160.691406 137.066406 "/>
<path style="fill:none;stroke-width:1.2;stroke-linecap:butt;stroke-linejoin:miter;stroke:rgb(0%,0%,100%);stroke-opacity:1;stroke-miterlimit:10;" d="M 160.691406 137.066406 L 151.238281 137.554688 "/>
<path style="fill:none;stroke-width:1.2;stroke-linecap:butt;stroke-linejoin:miter;stroke:rgb(0%,0%,100%);stroke-opacity:1;stroke-miterlimit:10;" d="M 151.238281 137.554688 L 145.730469 145.25 "/>
<path style="fill:none;stroke-width:1.2;stroke-linecap:butt;stroke-linejoin:miter;stroke:rgb(0%,0%,0%);stroke-opacity:1;stroke-miterlimit:10;" d="M 145.730469 145.25 L 140.21875 152.949219 "/>
<path style=" stroke:none;fill-rule:nonzero;fill:rgb(100%,100%,100%);fill-opacity:1;" d="M 144.238281 132.054688 L 158.238281 132.054688 L 158.238281 143.054688 L 144.238281 143.054688 Z M 144.238281 132.054688 "/>
<g style="fill:rgb(0%,0%,100%);fill-opacity:1;">
  <use xlink:href="#glyph0-3" x="144.238281" y="140.717773"/>
  <use xlink:href="#glyph0-2" x="151.21582" y="140.717773"/>
</g>
<path style="fill:none;stroke-width:1.2;stroke-linecap:butt;stroke-linejoin:miter;stroke:rgb(0%,0%,0%);stroke-opacity:1;stroke-miterlimit:10;" d="M 140.21875 152.949219 L 121.863281 148.3125 "/>
<path style="fill:none;stroke-width:1.2;stroke-linecap:butt;stroke-linejoin:miter;stroke:rgb(0%,0%,0%);stroke-opacity:1;stroke-miterlimit:10;" d="M 137.292969 156.804688 L 122.609375 153.09375 "/>
<path style="fill:none;stroke-width:1.2;stroke-linecap:butt;stroke-linejoin:miter;stroke:rgb(0%,0%,0%);stroke-opacity:1;stroke-miterlimit:10;" d="M 227.90625 125.917969 L 230.902344 116.941406 "/>
<path style="fill:none;stroke-width:1.2;stroke-linecap:butt;stroke-linejoin:miter;stroke:rgb(100%,0%,0%);stroke-opacity:1;stroke-miterlimit:10;" d="M 230.902344 116.941406 L 233.898438 107.960938 "/>
<path style="fill:none;stroke-width:1.2;stroke-linecap:butt;stroke-linejoin:miter;stroke:rgb(0%,0%,0%);stroke-opacity:1;stroke-miterlimit:10;" d="M 223.679688 124.507812 L 226.675781 115.53125 "/>
<path style="fill:none;stroke-width:1.2;stroke-linecap:butt;stroke-linejoin:miter;stroke:rgb(100%,0%,0%);stroke-opacity:1;stroke-miterlimit:10;" d="M 226.675781 115.53125 L 229.671875 106.550781 "/>
<path style="fill:none;stroke-width:1.2;stroke-linecap:butt;stroke-linejoin:miter;stroke:rgb(0%,0%,0%);stroke-opacity:1;stroke-miterlimit:10;" d="M 225.792969 125.214844 L 232.070312 132.296875 "/>
<path style="fill:none;stroke-width:1.2;stroke-linecap:butt;stroke-linejoin:miter;stroke:rgb(0%,0%,100%);stroke-opacity:1;stroke-miterlimit:10;" d="M 232.070312 132.296875 L 238.347656 139.382812 "/>
<path style=" stroke:none;fill-rule:nonzero;fill:rgb(100%,100%,100%);fill-opacity:1;" d="M 227.785156 101.757812 L 235.785156 101.757812 L 235.785156 112.757812 L 227.785156 112.757812 Z M 227.785156 101.757812 "/>
<g style="fill:rgb(100%,0%,0%);fill-opacity:1;">
  <use xlink:href="#glyph0-1" x="227.785156" y="110.420898"/>
</g>
<path style="fill:none;stroke-width:1.2;stroke-linecap:butt;stroke-linejoin:miter;stroke:rgb(0%,0%,100%);stroke-opacity:1;stroke-miterlimit:10;" d="M 238.347656 139.382812 L 247.765625 138.46875 "/>
<path style="fill:none;stroke-width:1.2;stroke-linecap:butt;stroke-linejoin:miter;stroke:rgb(0%,0%,0%);stroke-opacity:1;stroke-miterlimit:10;" d="M 247.765625 138.46875 L 257.1875 137.554688 "/>
<path style="fill:none;stroke-width:1.2;stroke-linecap:butt;stroke-linejoin:miter;stroke:rgb(0%,0%,0%);stroke-opacity:1;stroke-miterlimit:10;" d="M 234.261719 157.867188 L 236.304688 148.625 "/>
<path style="fill:none;stroke-width:1.2;stroke-linecap:butt;stroke-linejoin:miter;stroke:rgb(0%,0%,100%);stroke-opacity:1;stroke-miterlimit:10;" d="M 236.304688 148.625 L 238.347656 139.382812 "/>
<path style=" stroke:none;fill-rule:nonzero;fill:rgb(100%,100%,100%);fill-opacity:1;" d="M 235.347656 133.882812 L 242.347656 133.882812 L 242.347656 144.882812 L 235.347656 144.882812 Z M 235.347656 133.882812 "/>
<g style="fill:rgb(0%,0%,100%);fill-opacity:1;">
  <use xlink:href="#glyph0-3" x="235.347656" y="142.545898"/>
</g>
<path style="fill:none;stroke-width:1.2;stroke-linecap:butt;stroke-linejoin:miter;stroke:rgb(0%,0%,0%);stroke-opacity:1;stroke-miterlimit:10;" d="M 257.1875 137.554688 L 264.75 154.910156 "/>
<path style="fill:none;stroke-width:1.2;stroke-linecap:butt;stroke-linejoin:miter;stroke:rgb(0%,0%,0%);stroke-opacity:1;stroke-miterlimit:10;" d="M 264.75 154.910156 L 250.578125 167.464844 "/>
<path style="fill:none;stroke-width:1.2;stroke-linecap:butt;stroke-linejoin:miter;stroke:rgb(0%,0%,0%);stroke-opacity:1;stroke-miterlimit:10;" d="M 250.578125 167.464844 L 234.261719 157.867188 "/>
<path style="fill:none;stroke-width:1.2;stroke-linecap:butt;stroke-linejoin:miter;stroke:rgb(0%,0%,0%);stroke-opacity:1;stroke-miterlimit:10;" d="M 234.261719 157.867188 L 216.90625 165.429688 "/>
<path style="fill:none;stroke-width:1.2;stroke-linecap:butt;stroke-linejoin:miter;stroke:rgb(0%,0%,0%);stroke-opacity:1;stroke-miterlimit:10;" d="M 216.90625 165.429688 L 215.839844 174.835938 "/>
<path style="fill:none;stroke-width:1.2;stroke-linecap:butt;stroke-linejoin:miter;stroke:rgb(100%,0%,0%);stroke-opacity:1;stroke-miterlimit:10;" d="M 215.839844 174.835938 L 214.773438 184.242188 "/>
<path style=" stroke:none;fill-rule:nonzero;fill:rgb(100%,100%,100%);fill-opacity:1;" d="M 207.773438 178.742188 L 222.773438 178.742188 L 222.773438 189.742188 L 207.773438 189.742188 Z M 207.773438 178.742188 "/>
<g style="fill:rgb(100%,0%,0%);fill-opacity:1;">
  <use xlink:href="#glyph0-2" x="207.773438" y="187.405273"/>
  <use xlink:href="#glyph0-1" x="214.788086" y="187.405273"/>
</g>
</g>
</svg>

<svg xmlns="http://www.w3.org/2000/svg" xmlns:xlink="http://www.w3.org/1999/xlink" width="300pt" height="300pt" viewBox="0 0 300 300"><defs><symbol overflow="visible"><path d="M.453 1.594v-7.938h4.5v7.938zm.5-.5h3.5v-6.938h-3.5zm0 0"/></symbol><symbol overflow="visible" id="a"><path d="M3.547-5.953c-.65 0-1.164.242-1.547.72-.375.48-.563 1.13-.563 1.952 0 .835.188 1.49.563 1.967.383.48.898.72 1.547.72.644 0 1.156-.24 1.53-.72.376-.476.564-1.132.564-1.968 0-.822-.187-1.474-.562-1.954-.375-.477-.887-.72-1.53-.72zm0-.734c.914 0 1.648.312 2.203.937.55.617.828 1.438.828 2.47 0 1.042-.277 1.87-.828 2.483-.555.617-1.29.922-2.203.922-.93 0-1.668-.305-2.22-.922C.774-1.41.5-2.237.5-3.28c0-1.033.273-1.853.828-2.47.55-.625 1.29-.938 2.22-.938zm0 0"/></symbol><symbol overflow="visible" id="b"><path d="M.89-6.563h.876v2.688H5v-2.688h.89V0H5v-3.125H1.766V0H.89zm0 0"/></symbol><symbol overflow="visible" id="c"><path d="M.89-6.563H2.08l2.906 5.485v-5.484h.86V0H4.656L1.75-5.484V0H.89zm0 0"/></symbol></defs><g><path fill="#fff" d="M0 0h300v300H0z"/><path d="M74.828 102.613l-6.598 6.79" stroke-width="1.2" stroke="#000" stroke-miterlimit="10" fill="none"/><path d="M68.23 109.402l-6.597 6.79M61.633 116.19l2.582 9.107" stroke-width="1.2" stroke="#f00" stroke-miterlimit="10" fill="none"/><path d="M64.215 125.297l2.582 9.11" stroke-width="1.2" stroke="#000" stroke-miterlimit="10" fill="none"/><path d="M57.633 110.69h8v11h-8zm0 0" fill="#fff"/><use xlink:href="#a" x="57.633" y="119.354" fill="#f00"/><path d="M66.797 134.406l18.355 4.633M67.543 139.188l14.684 3.707M53.605 147.98l13.192-13.574M85.152 139.04l5.164 18.214M90.316 157.254L77.12 170.832M85.8 155.508L75.247 166.37M90.316 157.254l18.356 4.637M77.12 170.832l-18.35-4.637M58.77 166.195l-5.165-18.215M62.54 163.16l-4.134-14.57M53.605 147.98l-9.18-2.316" stroke-width="1.2" stroke="#000" stroke-miterlimit="10" fill="none"/><path d="M44.426 145.664l-9.176-2.316" stroke-width="1.2" stroke="#f00" stroke-miterlimit="10" fill="none"/><path d="M20.25 137.848h15v11h-15zm0 0" fill="#fff"/><g fill="#f00"><use xlink:href="#b" x="20.25" y="146.511"/><use xlink:href="#a" x="27.265" y="146.511"/></g><path d="M108.672 161.89l5.16 18.215M113.473 162.496l4.13 14.57M121.863 148.313l-13.19 13.578M113.832 180.105l18.356 4.633M132.188 184.738l13.19-13.578M130.313 180.277l10.554-10.863M145.38 171.16l17.46 7.32M140.22 152.95l5.16 18.21M160.617 178.598l.488 9.453" stroke-width="1.2" stroke="#000" stroke-miterlimit="10" fill="none"/><path d="M161.105 188.05l.493 9.454" stroke-width="1.2" stroke="#f00" stroke-miterlimit="10" fill="none"/><path d="M165.063 178.367l.492 9.453" stroke-width="1.2" stroke="#000" stroke-miterlimit="10" fill="none"/><path d="M165.555 187.82l.488 9.453" stroke-width="1.2" stroke="#f00" stroke-miterlimit="10" fill="none"/><path d="M162.84 178.48l8.305-4.542" stroke-width="1.2" stroke="#000" stroke-miterlimit="10" fill="none"/><path d="M171.145 173.938l8.304-4.543" stroke-width="1.2" stroke="#00f" stroke-miterlimit="10" fill="none"/><path d="M159.82 191.887h8v11h-8zm0 0" fill="#fff"/><use xlink:href="#a" x="159.82" y="200.55" fill="#f00"/><path d="M179.45 169.395l1.624-9.325" stroke-width="1.2" stroke="#00f" stroke-miterlimit="10" fill="none"/><path d="M181.074 160.07l1.625-9.324" stroke-width="1.2" stroke="#000" stroke-miterlimit="10" fill="none"/><path d="M172.45 163.895h14v11h-14zm0 0" fill="#fff"/><g fill="#00f"><use xlink:href="#c" x="172.449" y="172.558"/><use xlink:href="#b" x="179.427" y="172.558"/></g><path d="M182.7 150.746l18.55-3.79M183.664 146l14.84-3.027M170.145 136.574l12.554 14.172M201.25 146.957L207.242 129M207.242 129l-12.554-14.168M202.652 130.54l-10.043-11.337M207.242 129l18.55-3.785M194.688 114.832l-18.547 3.785M176.14 118.617l-5.995 17.957M179.766 121.824l-4.797 14.367M170.145 136.574l-9.454.492" stroke-width="1.2" stroke="#000" stroke-miterlimit="10" fill="none"/><path d="M160.69 137.066l-9.452.49M151.238 137.555l-5.508 7.695" stroke-width="1.2" stroke="#00f" stroke-miterlimit="10" fill="none"/><path d="M145.73 145.25l-5.51 7.7" stroke-width="1.2" stroke="#000" stroke-miterlimit="10" fill="none"/><path d="M144.238 132.055h14v11h-14zm0 0" fill="#fff"/><g fill="#00f"><use xlink:href="#c" x="144.238" y="140.718"/><use xlink:href="#b" x="151.216" y="140.718"/></g><path d="M140.22 152.95l-18.357-4.637M137.293 156.805l-14.684-3.71M227.906 125.918l2.996-8.977" stroke-width="1.2" stroke="#000" stroke-miterlimit="10" fill="none"/><path d="M230.902 116.94l2.996-8.98" stroke-width="1.2" stroke="#f00" stroke-miterlimit="10" fill="none"/><path d="M223.68 124.508l2.996-8.977" stroke-width="1.2" stroke="#000" stroke-miterlimit="10" fill="none"/><path d="M226.676 115.53l2.996-8.98" stroke-width="1.2" stroke="#f00" stroke-miterlimit="10" fill="none"/><path d="M225.793 125.215l6.277 7.082" stroke-width="1.2" stroke="#000" stroke-miterlimit="10" fill="none"/><path d="M232.07 132.297l6.278 7.086" stroke-width="1.2" stroke="#00f" stroke-miterlimit="10" fill="none"/><path d="M227.785 101.758h8v11h-8zm0 0" fill="#fff"/><use xlink:href="#a" x="227.785" y="110.421" fill="#f00"/><path d="M238.348 139.383l9.418-.914" stroke-width="1.2" stroke="#00f" stroke-miterlimit="10" fill="none"/><path d="M247.766 138.47l9.422-.915M234.262 157.867l2.043-9.242" stroke-width="1.2" stroke="#000" stroke-miterlimit="10" fill="none"/><path d="M236.305 148.625l2.043-9.242" stroke-width="1.2" stroke="#00f" stroke-miterlimit="10" fill="none"/><path d="M235.348 133.883h7v11h-7zm0 0" fill="#fff"/><use xlink:href="#c" x="235.348" y="142.546" fill="#00f"/><path d="M257.188 137.555l7.562 17.355M264.75 154.91l-14.172 12.555M250.578 167.465l-16.316-9.598M234.262 157.867l-17.356 7.563M216.906 165.43l-1.066 9.406" stroke-width="1.2" stroke="#000" stroke-miterlimit="10" fill="none"/><path d="M215.84 174.836l-1.067 9.406" stroke-width="1.2" stroke="#f00" stroke-miterlimit="10" fill="none"/><path d="M207.773 178.742h15v11h-15zm0 0" fill="#fff"/><g fill="#f00"><use xlink:href="#b" x="207.773" y="187.405"/><use xlink:href="#a" x="214.788" y="187.405"/></g></g></svg>
